X:3
T:Hommage \`a Edmond Pariso (Pariseau)
C:R-157
R:reel
Z:transcribed to ABC by Debby Knight
M:C|
L:1/8
K:A
A ABcd|"A"eAAe AAeA | AAeA "D"f2ed | "A"ceAB cAeA | ceAc "A#dim"dedc |
"E7/B"B3B BABc |1"E"B3e efed | "A" c2B2 AcBA |"E"E3 :|\
[2 "E"e2d2 c2B2| "A"Afed "E"cdBc |"A"A2c2 "A7" B2 A2 |]
|: \
"D"a4 "Em7/C#"f4 |"Bm7"d3A "E7"d2f2 | "A" e3e "E/G#"efec | "F#m"A2c2 B2A2 |"E"B2BB BABc |
"E"e2d2 c2B2 |1 "A"cBAc "E"ecef | "A"e2c2 "A/C#"B2A2 :|\
[2 "A"Afed "E"c2B2| "A"A3 |]
%%text 4/12/03
